icon-themes/breeze_svg/cmd/32/connectorlinescirclestart.svg

<svg viewBox="0 0 32 32" xmlns="http://www.w3.org/2000/svg"><path d="m7 4a3 3 0 0 0 -3 3 3 3 0 0 0 3 3 3 3 0 0 0 2.8261719-2h1.8964841l7.199219 18h1.074219 4.003906v-2h-3.722656l-7.201172-18h-1.080078-.996094-1.1757812a3 3 0 0 0 -2.8242188-2zm0 2a1 1 0 0 1 1 1 1 1 0 0 1 -1 1 1 1 0 0 1 -1-1 1 1 0 0 1 1-1z" fill="#4d4d4d"/></svg>

<svg xmlns="http://www.w3.org/2000/svg" viewBox="0 0 32 32">
 <path 
     style="fill:#4d4d4d" 
     d="M 7 4 A 3 3 0 0 0 4 7 A 3 3 0 0 0 7 10 A 3 3 0 0 0 9.8261719 8 L 11.722656 8 L 18.921875 26 L 19.996094 26 L 24 26 L 24 24 L 20.277344 24 L 13.076172 6 L 11.996094 6 L 11 6 L 9.8242188 6 A 3 3 0 0 0 7 4 z M 7 6 A 1 1 0 0 1 8 7 A 1 1 0 0 1 7 8 A 1 1 0 0 1 6 7 A 1 1 0 0 1 7 6 z "
     />
</svg>
